!!!OTL: 999. Peter und Eberle.
!!!ARE: Europa, Mitteleuropa, Deutschland, Sueddeutschland ?
!!!SCT: E0999
!!!TXL: @@DE
!!!YEM: Copyright 1995, estate of Helmut Schaffrath.
**kern	**text
*ICvox	*
*M3/4	*
*met(3)	*
*k[f#]	*
*G:	*
!LO:TX:a:t=Menuett.	!
!LO:TX:a:t=Kretʒſchmer I, Nr. 74.	!
{4d	Da
=1	=1
4d	dro-
4g	-ben
8g	auf
8g	dem
=2	=2
4f#	Ber-
4f#}	-ge,
{8f#	wo
8f#	der
=3	=3
4f#	Wind
4d	ſo
4f#	ſtark
=4	=4
4g	weht,
4r}	.
{4g	iſt
=5	=5
8g	Pe-
8g	-ter-
4b	-le
8b	mit
8b	dem
=6	=6
8dd	E-
8dd	-ber-
4cc}	-le,
{4cc	und
=7	=7
4cc	tan-
4d	-ʒen
4f#	Me-
=8	=8
4g	-nuett.
4r}	.
!LO:TX:a:t=II. Theil.	!
{4d	Jch
=9	=9
2b	mag
8a	dich
8g	nicht
=10	=10
4g	lie-
4f#}	-ben,
{4d	ich
=11	=11
2cc	kann
8b/	dich
8a	nicht
=12	=12
4a	lie-
4g}	-ben
{4d	Haſt_'ne
=13	=13
2b	Warʒ
8a	auf
8g	der
=14	=14
4g	Na-
4f#}	-ſen,
{4d	könnt
=15	=15
2cc	auch
8b/	ei-
8a	-ne
=16	=16
4a	kriegen,
4g}	.
{4g	doch
=17	=17
4g	daß
4b	ich
4b	dich
=18	=18
4dd	gar
4cc	nicht
4cc}	mag,
=19	=19
{4cc	das
4d	ſag
4f#	ich
=20	=20
2g}	nicht,
{4g	nur
=21	=21
4g	wenn
4b	du'n
4b	wen'g
=22	=22
4dd	ſchö-
4cc	-ner
4cc}	wärſt,
=23	=23
{4cc	ſchadt
4d	es
4f#	dir
=24	=24
2g}	nicht.
!LO:TX:a:t=III. Theil. Erste Melodie wiederholt.	!
{4d	Was
=25	=25
(4d	machſt
4g)	du?
4g	ſprach
=26	=26
2f#}	er;
{4f#	ich
=27	=27
4f#	ſpei-
4d	-ſe,
4f#	ſprach
=28	=28
2g}	ſie;
{4d	laß
=29	=29
(4d	ſe-
4g)	-hen,
4g	ſprach
=30	=30
2f#}	er;
{4cc	das
=31	=31
(<4cc	ſiehſt
4d)	du,
4f#	ſprach
=32	=32
2g}	ſie.
{4d	'S_iſt
=33	=33
(4d	heiß,
4g)	.
4g	ſprach
=34	=34
2f#}	er;
{4f#	mußt
=35	=35
4f#	bla-
4d	-ſen,
4f#	ſprach
=36	=36
2g}	ſie;
{4d	ja,
=37	=37
(4d	ja,
4g)	.
4g	ſprach
=38	=38
2f#}	er;
{4cc	Hm,
=39	=39
(<4cc	hm!
4d)	.
4f#	ſprach
=40	=40
2g}	ſie.
==	==
!!!AGN: Tanz - Lied, Reigen
!!!ONB: ESAC (Essen Associative Code) Database: ERK2
!!!AMT: simple triple
!!!AIN: vox
!!!EED: Helmut Schaffrath
!!!EEV: 1.0
!!!RDF**kern: <= below
!!!GTL: Tanz- und Spiellieder
!!!URL-scan: https://rosdok.uni-rostock.de/mcrviewer/recordIdentifier/rosdok_ppn745177662/iview2/phys_0765.iview2?x=-4.404412318551749&y=-104.3876874842681&scale=0.6456904138606624&rotation=0&layout=singlePageLayout
!!!ENC: Anna Maria Matuszewska
!!!EEV: 2024/12/30
*-	*-
